usr/share/icons/biglinux-icons-material/scalable/apps/docky.svg

<svg width="24" height="24" viewBox="0 0 24 24" fill="none" xmlns="http://www.w3.org/2000/svg">
<path fill-rule="evenodd" clip-rule="evenodd" d="M9.59604 1.11359C9.71588 1.11486 9.83043 1.0996 9.93969 1.06779C11.3755 0.973736 12.8111 0.977551 14.2467 1.07924C15.5484 1.18066 16.8085 1.46308 18.0269 1.9265C20.0525 2.76044 21.4386 4.2069 22.185 6.26586C22.6119 7.50549 22.8639 8.78021 22.9411 10.09C23.0478 11.7347 23.0096 13.3758 22.8265 15.0133C22.6895 16.1642 22.3917 17.271 21.933 18.3336C21.0824 20.1761 19.704 21.447 17.7978 22.1463C16.2531 22.6682 14.6647 22.943 13.0325 22.9706C11.1966 23.0661 9.37913 22.9287 7.57997 22.5585C4.26839 21.8208 2.22559 19.8018 1.45158 16.5017C1.12311 15.0161 0.974199 13.5124 1.00483 11.9906C0.968176 10.3724 1.14 8.77709 1.52031 7.20471C2.33171 4.11908 4.2905 2.20701 7.39669 1.46852C8.12049 1.29157 8.8536 1.17326 9.59604 1.11359Z" fill="url(#paint0_radial_4_687)"/>
<path opacity="0.35" d="M12.7394 3.2C12.4148 3.20278 12.1015 3.31948 11.8541 3.52972C11.6068 3.73996 11.4411 4.03039 11.386 4.35031C11.331 4.67024 11.39 4.99933 11.5529 5.28016C11.6137 5.38503 11.6876 5.48069 11.7721 5.56517C12.0284 5.82127 12.2771 6.12795 12.2771 6.49027V6.49027C12.2771 6.96639 11.8911 7.35237 11.415 7.35237H10.2009C10.1703 7.35214 10.1401 7.35798 10.1118 7.36956C10.0835 7.38114 10.0579 7.39822 10.0363 7.41982C10.0147 7.44141 9.9976 7.46708 9.98602 7.49534C9.97444 7.5236 9.9686 7.55388 9.96883 7.58441V8.04501C9.96883 8.17412 10.0735 8.27531 10.1991 8.27531H11.2771C11.8293 8.27531 12.2771 8.72303 12.2771 9.27531V12.8918V12.8918C12.2772 12.9629 12.2728 13.0339 12.2765 13.1049C12.2769 13.1111 12.2771 13.1174 12.2771 13.1238V14.5881C12.2771 14.6996 12.3339 14.8052 12.4203 14.8758V14.8758C12.5974 15.0206 12.8778 15.0208 13.0543 14.8753V14.8753C13.1424 14.8027 13.2 14.6974 13.2 14.5832V14.5091C13.1995 14.3573 13.2291 14.2069 13.287 14.0666C13.3449 13.9262 13.4299 13.7987 13.5373 13.6914C13.6446 13.584 13.7721 13.499 13.9124 13.4411C14.0528 13.3832 14.2032 13.3537 14.355 13.3541H15.8217C16.0112 13.3541 16.1969 13.3002 16.357 13.1988L17.3506 12.569V12.569C17.649 12.3854 18.1568 12.6146 18.2276 12.2715C18.2771 12.0323 18.2771 11.7623 18.2771 11.5065C18.2771 10.9656 17.8479 10.1229 17.6769 10.1229C17.5513 10.1229 17.5949 10.3602 17.3524 10.5835C17.2302 10.6969 16.8464 10.8906 16.6615 11.0441C16.4902 11.1864 16.3806 11.3244 16.3108 11.4472C16.1997 11.6431 16.5098 11.7731 16.6213 11.9688V11.9688C16.6737 12.0596 16.6737 12.255 15.8938 12.6423C15.2657 12.9563 14.2363 13.3541 13.8909 13.3541H13.6606C13.5999 13.3541 13.5398 13.3422 13.4837 13.3189C13.4276 13.2957 13.3766 13.2616 13.3337 13.2187C13.2907 13.1758 13.2567 13.1248 13.2334 13.0687C13.2102 13.0126 13.1983 12.9525 13.1983 12.8918V9.27531C13.1983 8.72303 13.646 8.27531 14.1983 8.27531H15.2744C15.3048 8.27554 15.335 8.26976 15.3631 8.25829C15.3913 8.24681 15.4168 8.22989 15.4384 8.20848C15.46 8.18707 15.4771 8.16161 15.4888 8.13355C15.5005 8.10549 15.5065 8.0754 15.5065 8.04501V7.58441C15.5065 7.49319 15.4542 7.42897 15.3792 7.38928C15.3147 7.35516 15.2394 7.35237 15.1664 7.35237H14.0621C13.586 7.35237 13.2 6.96639 13.2 6.49027V6.49027C13.2 6.12795 13.4486 5.82127 13.7049 5.56517C13.7895 5.48069 13.8633 5.38503 13.9242 5.28016C14.087 4.99933 14.1461 4.67024 14.091 4.35031C14.036 4.03039 13.8703 3.73996 13.6229 3.52972C13.3756 3.31948 13.0623 3.20278 12.7377 3.2H12.7394ZM12.7237 4.1212C12.7295 4.12109 12.7353 4.12109 12.7411 4.1212C12.8638 4.1212 12.9814 4.16991 13.0681 4.25661C13.1548 4.34332 13.2035 4.46092 13.2035 4.58354C13.2035 4.70616 13.1548 4.82376 13.0681 4.91047C12.9814 4.99717 12.8638 5.04589 12.7411 5.04589C12.6804 5.04703 12.6201 5.03621 12.5636 5.01403C12.507 4.99185 12.4554 4.95876 12.4117 4.91664C12.3233 4.83157 12.2724 4.71489 12.2701 4.59226C12.2678 4.46964 12.3143 4.35113 12.3993 4.26278C12.4844 4.17444 12.6011 4.12351 12.7237 4.1212ZM7.75132 10.1229C7.58209 10.1229 7.2 10.9639 7.2 11.5065C7.2 11.987 7.2 12.5143 7.52295 12.7973C7.58011 12.8474 7.66452 12.7988 7.69554 12.7295V12.7295V12.7295C7.74066 12.6285 7.81584 12.5424 7.88 12.4524C7.96953 12.3267 8.08382 12.2199 8.21645 12.1389C8.39685 12.0287 8.60418 11.9705 8.81559 11.9706H8.85259C8.85335 11.9706 8.85397 11.97 8.85397 11.9692V11.9692C8.85397 11.969 8.85404 11.9687 8.85416 11.9685C8.86646 11.9469 8.87943 11.9285 8.89288 11.9128C9.01936 11.7651 9.28124 11.6826 9.19663 11.5075C9.13037 11.3704 9.01483 11.2102 8.81559 11.0441C8.6289 10.8906 8.24333 10.6952 8.12294 10.5835C7.88043 10.3602 7.88566 10.1229 7.75307 10.1229H7.75132Z" fill="black"/>
<path fill-rule="evenodd" clip-rule="evenodd" d="M2.53629 19.2C2.05294 18.4235 1.69137 17.5241 1.45158 16.5017C1.35598 16.0693 1.27559 15.6354 1.21041 15.2L2.8 15.2V16.2C2.79974 16.3314 2.82542 16.4616 2.87558 16.583C2.92575 16.7044 2.99939 16.8148 3.09231 16.9077C3.18522 17.0006 3.29556 17.0743 3.417 17.1244C3.53845 17.1746 3.6686 17.2003 3.8 17.2H5.8C6.354 17.2 6.8 16.754 6.8 16.2V15.2H7.62C7.66554 15.4262 7.78812 15.6295 7.96683 15.7754C8.14554 15.9213 8.36931 16.0007 8.6 16H10.6C10.8307 16.0007 11.0545 15.9213 11.2332 15.7754C11.4119 15.6295 11.5345 15.4262 11.58 15.2H12.4V16.2C12.3997 16.3314 12.4254 16.4616 12.4756 16.583C12.5257 16.7044 12.5994 16.8148 12.6923 16.9077C12.7852 17.0006 12.8956 17.0743 13.017 17.1244C13.1384 17.1746 13.2686 17.2003 13.4 17.2H15.4C15.954 17.2 16.4 16.754 16.4 16.2V15.2H17.2V16.2C17.1997 16.3314 17.2254 16.4616 17.2756 16.583C17.3257 16.7044 17.3994 16.8148 17.4923 16.9077C17.5852 17.0006 17.6956 17.0743 17.817 17.1244C17.9384 17.1746 18.0686 17.2003 18.2 17.2H20.2C20.754 17.2 21.2 16.754 21.2 16.2V15.2H22.8C22.8009 15.2 22.8019 15.2 22.8028 15.2C22.6567 16.284 22.3668 17.3286 21.933 18.3336C21.7925 18.638 21.6376 18.9268 21.4682 19.2H2.53629Z" fill="#F9F9F9"/>
<path d="M8.59999 12C8.4686 11.9997 8.33844 12.0254 8.217 12.0756C8.09556 12.1257 7.98521 12.1994 7.8923 12.2923C7.79939 12.3852 7.72574 12.4956 7.67558 12.617C7.62542 12.7385 7.59973 12.8686 7.59999 13V15C7.59999 15.554 8.04599 16 8.59999 16H10.6C11.154 16 11.6 15.554 11.6 15V13C11.6 12.446 11.154 12 10.6 12H8.59999ZM3.8 13.2C3.6686 13.1997 3.53844 13.2254 3.417 13.2756C3.29556 13.3257 3.18521 13.3994 3.0923 13.4923C2.99939 13.5852 2.92574 13.6956 2.87558 13.817C2.82542 13.9385 2.79973 14.0686 2.8 14.2V16.2C2.8 16.754 3.246 17.2 3.8 17.2H5.8C6.354 17.2 6.79999 16.754 6.79999 16.2V14.2C6.79999 13.646 6.354 13.2 5.8 13.2H3.8ZM13.4 13.2C13.2686 13.1997 13.1384 13.2254 13.017 13.2756C12.8956 13.3257 12.7852 13.3994 12.6923 13.4923C12.5994 13.5852 12.5257 13.6956 12.4756 13.817C12.4254 13.9385 12.3997 14.0686 12.4 14.2V16.2C12.4 16.754 12.846 17.2 13.4 17.2H15.4C15.954 17.2 16.4 16.754 16.4 16.2V14.2C16.4 13.646 15.954 13.2 15.4 13.2H13.4ZM18.2 13.2C18.0686 13.1997 17.9384 13.2254 17.817 13.2756C17.6956 13.3257 17.5852 13.3994 17.4923 13.4923C17.3994 13.5852 17.3257 13.6956 17.2756 13.817C17.2254 13.9385 17.1997 14.0686 17.2 14.2V16.2C17.2 16.754 17.646 17.2 18.2 17.2H20.2C20.754 17.2 21.2 16.754 21.2 16.2V14.2C21.2 13.646 20.754 13.2 20.2 13.2H18.2Z" fill="#86AFFC"/>
<defs>
<radialGradient id="paint0_radial_4_687" cx="0" cy="0" r="1" gradientUnits="userSpaceOnUse" gradientTransform="translate(12 1) rotate(90) scale(22)">
<stop stop-color="#68BBFF" stop-opacity="0.87451"/>
<stop offset="1" stop-color="#5C87FF"/>
</radialGradient>
</defs>
</svg>

<svg xmlns="http://www.w3.org/2000/svg" width="24" height="24" fill="none"><path fill="url(#a)" fill-rule="evenodd" d="M9.596 1.114c.12 0 .234-.014.344-.046a31.627 31.627 0 0 1 4.307.011c1.301.102 2.561.384 3.78.848 2.025.833 3.412 2.28 4.158 4.339.427 1.24.679 2.514.756 3.824a27.94 27.94 0 0 1-.114 4.923 11.876 11.876 0 0 1-.894 3.32c-.85 1.843-2.229 3.114-4.135 3.813a15.624 15.624 0 0 1-4.765.825 21.423 21.423 0 0 1-5.453-.413c-3.312-.737-5.354-2.756-6.128-6.056a19.047 19.047 0 0 1-.447-4.511 18.491 18.491 0 0 1 .515-4.786c.812-3.086 2.77-4.998 5.877-5.736a13.954 13.954 0 0 1 2.199-.355Z" clip-rule="evenodd"/><path fill="#000" d="M12.74 3.2a1.385 1.385 0 0 0-.968 2.365c.256.256.505.563.505.925a.862.862 0 0 1-.862.862h-1.214a.23.23 0 0 0-.232.232v.461c0 .13.104.23.23.23h1.078a1 1 0 0 1 1 1v3.617c0 .07-.004.142 0 .213V14.588c0 .112.057.217.143.288a.516.516 0 0 0 .634 0 .383.383 0 0 0 .146-.293v-.074a1.15 1.15 0 0 1 1.155-1.155h1.467a1 1 0 0 0 .535-.155l.994-.63c.298-.184.806.046.877-.298.05-.239.05-.509.05-.764 0-.541-.43-1.384-.601-1.384-.126 0-.082.237-.325.46-.122.114-.506.308-.69.461-.172.142-.281.28-.351.403-.111.196.199.326.31.522.053.09.053.286-.727.673-.628.314-1.658.712-2.003.712h-.23a.461.461 0 0 1-.463-.462V9.275a1 1 0 0 1 1-1h1.076a.23.23 0 0 0 .233-.23v-.46c0-.092-.053-.156-.128-.196a.45.45 0 0 0-.213-.037h-1.104a.862.862 0 0 1-.862-.862c0-.362.249-.669.505-.925a1.387 1.387 0 0 0-.082-2.035 1.385 1.385 0 0 0-.885-.33h.001Zm-.016.921h.017a.462.462 0 1 1 0 .925.462.462 0 1 1-.017-.925ZM7.75 10.123c-.169 0-.551.84-.551 1.384 0 .48 0 1.007.323 1.29.057.05.142.002.173-.068.045-.1.12-.187.184-.277a1.147 1.147 0 0 1 .936-.481h.037l.001-.002a.356.356 0 0 1 .039-.056c.126-.148.388-.23.304-.405a1.414 1.414 0 0 0-.381-.464c-.187-.153-.573-.349-.693-.46-.243-.224-.237-.461-.37-.461h-.002Z" opacity=".35"/><path fill="#F9F9F9" fill-rule="evenodd" d="M2.536 19.2c-.483-.776-.845-1.676-1.084-2.698A19.186 19.186 0 0 1 1.21 15.2H2.8v1a.998.998 0 0 0 1 1h2c.554 0 1-.446 1-1v-1h.82a.997.997 0 0 0 .98.8h2a.996.996 0 0 0 .98-.8h.82v1a.996.996 0 0 0 1 1h2c.554 0 1-.446 1-1v-1h.8v1a.996.996 0 0 0 1 1h2c.554 0 1-.446 1-1v-1h1.603a11.872 11.872 0 0 1-.87 3.134 8.02 8.02 0 0 1-.465.866H2.536Z" clip-rule="evenodd"/><path fill="#86AFFC" d="M8.6 12a.997.997 0 0 0-1 1v2c0 .554.446 1 1 1h2c.554 0 1-.446 1-1v-2c0-.554-.446-1-1-1h-2Zm-4.8 1.2a.997.997 0 0 0-1 1v2c0 .554.446 1 1 1h2c.554 0 1-.446 1-1v-2c0-.554-.446-1-1-1h-2Zm9.6 0a.996.996 0 0 0-1 1v2c0 .554.446 1 1 1h2c.554 0 1-.446 1-1v-2c0-.554-.446-1-1-1h-2Zm4.8 0a.996.996 0 0 0-1 1v2c0 .554.446 1 1 1h2c.554 0 1-.446 1-1v-2c0-.554-.446-1-1-1h-2Z"/><defs><radialGradient id="a" cx="0" cy="0" r="1" gradientTransform="matrix(0 22 -22 0 12 1)" gradientUnits="userSpaceOnUse"><stop stop-color="#68BBFF" stop-opacity=".875"/><stop offset="1" stop-color="#5C87FF"/></radialGradient></defs></svg>
